source/images/icon-local.svg

<svg height="75" viewBox="0 0 90 75" width="90" xmlns="http://www.w3.org/2000/svg"><g fill="#0093c9" fill-rule="evenodd"><path d="m85.9669481 55.6249219c0 1.3183594-1.0753247 2.3964844-2.3902598 2.3964844h-77.16272726c-1.31493507 0-2.39025974-1.078125-2.39025974-2.3964844v-49.36640627c0-1.31835938 1.07532467-2.39648438 2.39025974-2.39648438h77.16272726c1.3149351 0 2.3902598 1.078125 2.3902598 2.39648438zm-1.2412987-55.46601565v-.13242187h-79.90363641v.13242187c-2.58545455.17929688-4.51636364 2.23828125-4.82142857 4.74257813v52.65234372c0 1.0113282.26415584 1.8632813.70246753 2.6320313 1.0087013 1.7800781 2.49662337 2.6824219 4.55727273 2.6824219h28.84090912v7.2925781h-5.4794806c-1.3605194 0-2.4101298 1.0617187-2.4101298 2.4164062 0 1.359375 1.0496104 2.4222657 2.4101298 2.4222657h32.3041559c1.3546753 0 2.451039-1.0628907 2.451039-2.4222657 0-1.3546875-1.0963637-2.4164062-2.451039-2.4164062h-5.4794805v-7.2925781h28.8374026c2.0641558 0 3.564935-.9023438 4.5607792-2.6824219.4523377-.80625.7445454-1.6710938.7445454-2.6320313v-52.65234372c-.3062337-2.50429688-2.3645454-4.56328125-4.8635064-4.74257813z"/><path d="m18 52h18v-4h-18z"/><path d="m32 37h28v-4h-28z"/><path d="m42 52h10v-4h-10z"/><path d="m8 15h47v-4h-47z"/><path d="m23 23h28v-4h-28z"/><path d="m23 45h14v-4h-14z"/><path d="m52 45h29v-4h-29z"/><path d="m60 52h20v-4h-20z"/><path d="m8 23h11v-4h-11z"/><path d="m8 37h19v-4h-19z"/><path d="m8 45h10v-4h-10z"/><path d="m40 45h9v-4h-9z"/><path d="m54 23h7v-4h-7z"/><path d="m18 30h29v-4h-29z"/><path d="m51 30h23v-4h-23z"/><path d="m77 16.8917951v-1.3635794h-.6579694v-.6858653h-.6704481v-.6847008h-.6693136v-.6858653h-.6625071v-.6742207h-.6738514v-.6963454h-.6579694v-.6812075h-.6659104v-.6835363h-.6704481v-.6823719h-.6693136v-.68586531h-.6659104v-.68353637h-.6704481v-.68470082h-.6659104v11.6375851h1.3363585v-.6916876h.6659104v-.6823719h.6693136v-.6881942h.6704481v1.3705661h.6659104v1.3682372h.6579694v.6858653h1.3363585v-.6858653h.6693136v-1.3682372h-.6693136v-1.3705661h-.6625071v-.6835363z"/></g></svg>

<?xml version="1.0" encoding="UTF-8"?>
<svg width="90px" height="75px" viewBox="0 0 90 75" version="1.1" xmlns="http://www.w3.org/2000/svg" xmlns:xlink="http://www.w3.org/1999/xlink">
    <!-- Generator: Sketch 41.2 (35397) - https://www.sketchapp.com -->
    <title>icon-local</title>
    <desc>Created with Sketch.</desc>
    <defs></defs>
    <g id="Updated-HOME-+-icons" stroke="none" stroke-width="1" fill="none" fill-rule="evenodd">
        <g id="Artboard" transform="translate(-144.000000, -583.000000)" fill="#0093C9">
            <g id="icon-local" transform="translate(144.000000, 583.000000)">
                <g id="Group-3">
                    <path d="M85.9669481,55.6249219 C85.9669481,56.9432813 84.8916234,58.0214063 83.5766883,58.0214063 L6.41396104,58.0214063 C5.09902597,58.0214063 4.0237013,56.9432813 4.0237013,55.6249219 L4.0237013,6.25851563 C4.0237013,4.94015625 5.09902597,3.86203125 6.41396104,3.86203125 L83.5766883,3.86203125 C84.8916234,3.86203125 85.9669481,4.94015625 85.9669481,6.25851563 L85.9669481,55.6249219 Z M84.7256494,0.15890625 L84.7256494,0.026484375 L4.82201299,0.026484375 L4.82201299,0.15890625 C2.23655844,0.338203125 0.305649351,2.3971875 0.000584415584,4.90148438 L0.000584415584,57.5538281 C0.000584415584,58.5651563 0.26474026,59.4171094 0.703051948,60.1858594 C1.71175325,61.9659375 3.19967532,62.8682813 5.26032468,62.8682813 L34.1012338,62.8682813 L34.1012338,70.1608594 L28.6217532,70.1608594 C27.2612338,70.1608594 26.2116234,71.2225781 26.2116234,72.5772656 C26.2116234,73.9366406 27.2612338,74.9995313 28.6217532,74.9995313 L60.9259091,74.9995313 C62.2805844,74.9995313 63.3769481,73.9366406 63.3769481,72.5772656 C63.3769481,71.2225781 62.2805844,70.1608594 60.9259091,70.1608594 L55.4464286,70.1608594 L55.4464286,62.8682813 L84.2838312,62.8682813 C86.347987,62.8682813 87.8487662,61.9659375 88.8446104,60.1858594 C89.2969481,59.3796094 89.5891558,58.5147656 89.5891558,57.5538281 L89.5891558,4.90148438 C89.2829221,2.3971875 87.2246104,0.338203125 84.7256494,0.15890625 L84.7256494,0.15890625 Z" id="Fill-1"></path>
                </g>
                <polygon id="Fill-4" points="18 52 36 52 36 48 18 48"></polygon>
                <polygon id="Fill-6" points="32 37 60 37 60 33 32 33"></polygon>
                <polygon id="Fill-7" points="42 52 52 52 52 48 42 48"></polygon>
                <polygon id="Fill-8" points="8 15 55 15 55 11 8 11"></polygon>
                <polygon id="Fill-9" points="23 23 51 23 51 19 23 19"></polygon>
                <polygon id="Fill-10" points="23 45 37 45 37 41 23 41"></polygon>
                <polygon id="Fill-11" points="52 45 81 45 81 41 52 41"></polygon>
                <polygon id="Fill-12" points="60 52 80 52 80 48 60 48"></polygon>
                <polygon id="Fill-13" points="8 23 19 23 19 19 8 19"></polygon>
                <polygon id="Fill-14" points="8 37 27 37 27 33 8 33"></polygon>
                <polygon id="Fill-15" points="8 45 18 45 18 41 8 41"></polygon>
                <polygon id="Fill-16" points="40 45 49 45 49 41 40 41"></polygon>
                <polygon id="Fill-17" points="54 23 61 23 61 19 54 19"></polygon>
                <polygon id="Fill-18" points="18 30 47 30 47 26 18 26"></polygon>
                <polygon id="Fill-19" points="51 30 74 30 74 26 51 26"></polygon>
                <polygon id="Fill-20" points="77 16.8917951 77 15.5282157 76.3420306 15.5282157 76.3420306 14.8423504 75.6715825 14.8423504 75.6715825 14.1576496 75.0022689 14.1576496 75.0022689 13.4717843 74.3397618 13.4717843 74.3397618 12.7975636 73.6659104 12.7975636 73.6659104 12.1012182 73.007941 12.1012182 73.007941 11.4200107 72.3420306 11.4200107 72.3420306 10.7364744 71.6715825 10.7364744 71.6715825 10.0541025 71.0022689 10.0541025 71.0022689 9.36823719 70.3363585 9.36823719 70.3363585 8.68470082 69.6659104 8.68470082 69.6659104 8 69 8 69 19.6375851 70.3363585 19.6375851 70.3363585 18.9458975 71.0022689 18.9458975 71.0022689 18.2635256 71.6715825 18.2635256 71.6715825 17.5753314 72.3420306 17.5753314 72.3420306 18.9458975 73.007941 18.9458975 73.007941 20.3141347 73.6659104 20.3141347 73.6659104 21 75.0022689 21 75.0022689 20.3141347 75.6715825 20.3141347 75.6715825 18.9458975 75.0022689 18.9458975 75.0022689 17.5753314 74.3397618 17.5753314 74.3397618 16.8917951"></polygon>
            </g>
        </g>
    </g>
</svg>
